src/assets/img/Footer/twittericon.svg

<svg width="24" height="24" viewBox="0 0 24 24" fill="none" xmlns="http://www.w3.org/2000/svg">
<g id="Icon">
<path id="Vector" d="M7.55016 21.7497C16.6045 21.7497 21.5583 14.2465 21.5583 7.74162C21.5583 7.53068 21.5536 7.31505 21.5442 7.10412C22.5079 6.40722 23.3395 5.54401 24 4.55505C23.1025 4.95436 22.1496 5.21514 21.1739 5.32849C22.2013 4.71266 22.9705 3.74523 23.3391 2.60552C22.3726 3.17831 21.3156 3.58237 20.2134 3.80037C19.4708 3.01132 18.489 2.48887 17.4197 2.31381C16.3504 2.13874 15.2532 2.32081 14.2977 2.83185C13.3423 3.3429 12.5818 4.15446 12.1338 5.14107C11.6859 6.12767 11.5754 7.23437 11.8195 8.29005C9.86249 8.19185 7.94794 7.68346 6.19998 6.79785C4.45203 5.91225 2.90969 4.66919 1.67297 3.14927C1.0444 4.233 0.852057 5.5154 1.13503 6.73585C1.418 7.95629 2.15506 9.0232 3.19641 9.71974C2.41463 9.69492 1.64998 9.48444 0.965625 9.10568V9.16662C0.964925 10.3039 1.3581 11.4063 2.07831 12.2865C2.79852 13.1667 3.80132 13.7703 4.91625 13.9947C4.19206 14.1929 3.43198 14.2218 2.69484 14.0791C3.00945 15.0572 3.62157 15.9126 4.44577 16.5261C5.26997 17.1395 6.26512 17.4804 7.29234 17.501C5.54842 18.8709 3.39417 19.6139 1.17656 19.6104C0.783287 19.6098 0.390399 19.5857 0 19.5382C2.25286 20.9835 4.87353 21.7511 7.55016 21.7497Z" fill="#262626"/>
</g>
</svg>

<svg width="24" height="24" fill="none" xmlns="http://www.w3.org/2000/svg"><path d="M7.55 21.75c9.055 0 14.008-7.504 14.008-14.008 0-.211-.004-.427-.014-.638A10 10 0 0 0 24 4.555c-.898.4-1.85.66-2.826.773a4.95 4.95 0 0 0 2.165-2.722A9.897 9.897 0 0 1 20.213 3.8a4.93 4.93 0 0 0-8.394 4.49A13.984 13.984 0 0 1 1.673 3.15a4.93 4.93 0 0 0 1.523 6.57 4.93 4.93 0 0 1-2.23-.614v.06a4.922 4.922 0 0 0 3.95 4.829 4.893 4.893 0 0 1-2.221.084 4.934 4.934 0 0 0 4.597 3.422A9.875 9.875 0 0 1 0 19.538a13.969 13.969 0 0 0 7.55 2.212Z" fill="#262626"/></svg>
